icons/codescan-16.svg

<svg width="16" height="16" viewBox="0 0 16 16" fill="none" xmlns="http://www.w3.org/2000/svg">
<path d="M8.46967 4.96967C8.17678 5.26256 8.17678 5.73744 8.46967 6.03033L9.93934 7.5L8.46967 8.96967C8.17678 9.26256 8.17678 9.73744 8.46967 10.0303C8.76256 10.3232 9.23744 10.3232 9.53033 10.0303L11.5303 8.03033C11.8232 7.73744 11.8232 7.26256 11.5303 6.96967L9.53033 4.96967C9.23744 4.67678 8.76256 4.67678 8.46967 4.96967Z" fill="black"/>
<path d="M6.53033 6.03033C6.82322 5.73744 6.82322 5.26256 6.53033 4.96967C6.23744 4.67678 5.76256 4.67678 5.46967 4.96967L3.46967 6.96967C3.17678 7.26256 3.17678 7.73744 3.46967 8.03033L5.46967 10.0303C5.76256 10.3232 6.23744 10.3232 6.53033 10.0303C6.82322 9.73744 6.82322 9.26256 6.53033 8.96967L5.06066 7.5L6.53033 6.03033Z" fill="black"/>
<path fill-rule="evenodd" clip-rule="evenodd" d="M12.2465 13.3072C10.9536 14.3652 9.30095 15 7.5 15C3.35786 15 0 11.6421 0 7.5C0 3.35786 3.35786 0 7.5 0C11.6421 0 15 3.35786 15 7.5C15 9.30095 14.3652 10.9536 13.3072 12.2465L15.7803 14.7197C16.0732 15.0126 16.0732 15.4874 15.7803 15.7803C15.4874 16.0732 15.0126 16.0732 14.7197 15.7803L12.2465 13.3072ZM1.5 7.5C1.5 4.18629 4.18629 1.5 7.5 1.5C10.8137 1.5 13.5 4.18629 13.5 7.5C13.5 9.08239 12.8874 10.5217 11.8865 11.5937C11.8267 11.6269 11.7704 11.6689 11.7197 11.7197C11.6689 11.7704 11.6269 11.8267 11.5937 11.8865C10.5217 12.8874 9.08239 13.5 7.5 13.5C4.18629 13.5 1.5 10.8137 1.5 7.5Z" fill="black"/>
</svg>

<svg xmlns="http://www.w3.org/2000/svg" width="16" height="16" viewBox="0 0 16 16"><path d="M8.47 4.97a.75.75 0 000 1.06L9.94 7.5 8.47 8.97a.75.75 0 101.06 1.06l2-2a.75.75 0 000-1.06l-2-2a.75.75 0 00-1.06 0zM6.53 6.03a.75.75 0 00-1.06-1.06l-2 2a.75.75 0 000 1.06l2 2a.75.75 0 101.06-1.06L5.06 7.5l1.47-1.47z"/><path fill-rule="evenodd" d="M12.246 13.307a7.5 7.5 0 111.06-1.06l2.474 2.473a.75.75 0 11-1.06 1.06l-2.474-2.473zM1.5 7.5a6 6 0 1110.386 4.094.75.75 0 00-.292.293A6 6 0 011.5 7.5z"/></svg>
